apps/web/src/assets/svgs/emoji.svg

<?xml version="1.0" encoding="UTF-8" standalone="no"?>
<!-- Created with Inkscape (http://www.inkscape.org/) -->

<svg
   width="8mm"
   height="8mm"
   viewBox="0 0 8 8"
   version="1.1"
   id="svg1"
   sodipodi:docname="emoji_flat.svg"
   inkscape:version="1.3.2 (091e20ef0f, 2023-11-25)"
   xmlns:inkscape="http://www.inkscape.org/namespaces/inkscape"
   xmlns:sodipodi="http://sodipodi.sourceforge.net/DTD/sodipodi-0.dtd"
   xmlns="http://www.w3.org/2000/svg"
   xmlns:svg="http://www.w3.org/2000/svg">
  <sodipodi:namedview
     id="namedview1"
     pagecolor="#ffffff"
     bordercolor="#000000"
     borderopacity="0.25"
     inkscape:showpageshadow="2"
     inkscape:pageopacity="0.0"
     inkscape:pagecheckerboard="0"
     inkscape:deskcolor="#d1d1d1"
     inkscape:document-units="mm"
     inkscape:zoom="24.097897"
     inkscape:cx="21.952123"
     inkscape:cy="21.661641"
     inkscape:window-width="2560"
     inkscape:window-height="1515"
     inkscape:window-x="0"
     inkscape:window-y="1415"
     inkscape:window-maximized="1"
     inkscape:current-layer="layer1" />
  <defs
     id="defs1" />
  <g
     inkscape:label="Capa 1"
     inkscape:groupmode="layer"
     id="layer1"
     transform="translate(-168.45396,-66.060051)">
    <g
       id="g444-7"
       transform="matrix(1.0698238,0,0,1.0698238,133.51514,23.374733)"
       style="fill:#000000">
      <path
         id="circle278-8"
         style="color:#000000;fill:#000000;stroke-linecap:round;stroke-linejoin:round;-inkscape-stroke:none"
         d="M 36.396703 40.302727 C 34.557784 40.302727 33.0623 41.79966 33.0623 43.638579 C 33.0623 45.477498 34.557784 46.974432 36.396703 46.974432 C 38.235622 46.974432 39.732556 45.477498 39.732556 43.638579 C 39.732556 41.79966 38.235622 40.302727 36.396703 40.302727 z M 36.396703 40.84566 C 37.942333 40.84566 39.189622 42.092949 39.189622 43.638579 C 39.189622 45.18421 37.942333 46.431498 36.396703 46.431498 C 34.851073 46.431498 33.605233 45.18421 33.605233 43.638579 C 33.605233 42.092949 34.851073 40.84566 36.396703 40.84566 z M 35.351894 42.576864 A 0.42534485 0.42534485 0 0 0 34.926822 43.00242 A 0.42534485 0.42534485 0 0 0 35.351894 43.427492 A 0.42534485 0.42534485 0 0 0 35.77745 43.00242 A 0.42534485 0.42534485 0 0 0 35.351894 42.576864 z M 37.442961 42.576864 A 0.42534485 0.42534485 0 0 0 37.017405 43.00242 A 0.42534485 0.42534485 0 0 0 37.442961 43.427492 A 0.42534485 0.42534485 0 0 0 37.868033 43.00242 A 0.42534485 0.42534485 0 0 0 37.442961 42.576864 z M 37.709114 44.345745 A 0.27134299 0.27134299 0 0 0 37.521696 44.437522 C 37.521696 44.437522 37.118344 44.894475 36.396703 44.894475 C 35.675063 44.894475 35.273642 44.437522 35.273642 44.437522 A 0.27134299 0.27134299 0 0 0 34.890594 44.413853 A 0.27134299 0.27134299 0 0 0 34.867408 44.796902 C 34.867408 44.796902 35.438652 45.437408 36.396703 45.437408 C 37.354755 45.437408 37.92793 44.796902 37.92793 44.796902 A 0.27134299 0.27134299 0 0 0 37.904261 44.413853 A 0.27134299 0.27134299 0 0 0 37.709114 44.345745 z " />
    </g>
  </g>
</svg>

<svg xmlns="http://www.w3.org/2000/svg" width="8mm" height="8mm" viewBox="0 0 8 8"><g style="fill:#000"><path d="M36.397 40.303a3.34 3.34 0 0 0-3.335 3.336 3.34 3.34 0 0 0 3.335 3.335 3.34 3.34 0 0 0 3.336-3.335 3.34 3.34 0 0 0-3.336-3.336m0 .543a2.79 2.79 0 0 1 2.793 2.793 2.79 2.79 0 0 1-2.793 2.792 2.79 2.79 0 0 1-2.792-2.792 2.79 2.79 0 0 1 2.792-2.793m-1.045 1.73a.425.425 0 0 0-.425.426.425.425 0 0 0 .425.425.425.425 0 0 0 .425-.425.425.425 0 0 0-.425-.425m2.091 0a.425.425 0 0 0-.426.426.425.425 0 0 0 .426.425.425.425 0 0 0 .425-.425.425.425 0 0 0-.425-.425m.266 1.77a.27.27 0 0 0-.187.092s-.404.456-1.125.456c-.722 0-1.123-.456-1.123-.456a.27.27 0 0 0-.383-.024.27.27 0 0 0-.024.383s.572.64 1.53.64 1.53-.64 1.53-.64a.27.27 0 0 0-.023-.383.27.27 0 0 0-.195-.068" style="color:#000;fill:#000;stroke-linecap:round;stroke-linejoin:round;-inkscape-stroke:none" transform="matrix(1.06982 0 0 1.06982 -34.939 -42.685)"/></g></svg>
